public/icons/briefcase_icon.svg

<svg width="330" height="330" viewBox="0 0 330 330" fill="none" xmlns="http://www.w3.org/2000/svg">
<path d="M140.622 38.5006L156.993 38.4471C173.662 38.4001 198.38 34.9741 211.074 47.8548C220.225 57.1424 221.018 68.5394 220.936 80.8363L256.155 80.7128C263.021 80.6947 270.852 80.0047 277.584 81.3994C281.806 82.2739 286.106 84.0836 289.23 87.1276C296.402 94.1188 296.901 101.619 296.946 111.074L296.925 214.727L296.912 243.345C296.912 249.636 297.351 256.464 296.266 262.656C295.334 267.974 292.389 273.164 288.58 276.942C284.899 280.592 281.242 282.469 276.187 283.542C266.166 285.668 254.434 284.602 244.188 284.61L190.594 284.615L100.989 284.634C87.369 284.634 69.5472 285.944 56.3306 283.895C50.563 283 45.9653 281.357 41.7563 277.214C38.0668 273.582 35.0558 268.337 34.0447 263.235C32.1806 253.837 33.3802 229.237 33.3769 218.318L33.395 115.618C33.4074 105.521 32.8771 94.9331 40.7575 87.2799C43.8089 84.3166 47.9373 82.3883 52.0656 81.4966C61.7813 79.3979 97.1044 80.7959 109.35 80.8461C109.173 69.1791 109.175 57.876 117.409 48.6148C123.545 41.7133 131.654 39.0753 140.622 38.5006Z" fill="black"/>
<path d="M190.854 176.084C212.906 175.581 266.106 167.532 285.172 158.403C285.607 181.632 285.26 204.929 285.272 228.166C285.242 237.941 288.019 260.312 281.12 267.743C276.653 272.553 269.752 272.314 263.747 272.341L126.201 272.338L82.6809 272.395C74.7675 272.402 66.4112 272.925 58.5522 272.004C54.7582 271.56 51.5323 270.028 48.853 267.299C46.154 264.551 45.506 260.712 45.0976 257.006C44.0133 247.163 45.1405 236.51 45.152 226.551L45.1182 158.512C67.1407 167.846 114.694 174.463 139.411 176.228C139.343 183.712 139.844 190.222 145.171 195.994C150.056 201.288 156.834 203.268 163.855 203.486C171.232 203.715 178.508 202.15 183.987 196.909C190.178 190.987 190.661 184.111 190.854 176.084Z" fill="#FEFEFE"/>
<path d="M57.4679 92.863L199.819 92.8968L245.009 92.8803C253.48 92.8391 262.15 92.3814 270.595 92.854C273.654 93.0252 276.786 93.143 279.445 94.849C282.356 96.7164 283.978 99.1206 284.689 102.489C285.81 107.809 285.907 133.532 285.299 139.027C285.095 140.757 284.469 142.411 283.476 143.841C278.058 151.615 254.89 154.488 245.654 156.468C227.321 159.887 209.24 162.501 190.658 164.21C190.75 159.105 191.838 150.993 187.874 147.107C185.494 144.774 179.092 144.659 175.93 144.617C169.753 144.535 145.425 143.23 141.662 147.52C138.338 151.308 139.401 159.458 139.472 164.178C119.827 162.098 62.8741 155.484 47.8403 145.769C46.4142 143.774 45.7827 141.203 45.3916 138.809C44.3295 132.305 44.2216 111.542 45.3043 105.072C45.7629 102.333 46.7888 99.6187 48.4504 97.38C50.7805 94.2413 53.8327 93.4476 57.4679 92.863Z" fill="#FEFEFE"/>
<path d="M136.744 51.3146C143.744 50.5513 151.085 51.168 158.123 51.2767C165.936 51.3978 173.74 51.196 181.552 51.1862C189.178 51.1763 197.227 51.3343 202.924 57.1786C209.091 63.5061 208.675 72.6586 208.474 80.8322L194.3 80.8305L121.521 80.8544C121.498 74.484 121.057 67.5974 123.847 61.6948C126.505 56.0712 131.079 53.317 136.744 51.3146Z" fill="#FEFEFE"/>
<path d="M151.28 156.974L179.105 157C179.048 165.866 181.599 180.714 176.069 187.939C172.929 190.182 170.364 190.792 166.551 190.925C162.372 191.071 157.726 191.116 154.548 187.91C148.756 182.066 151.172 165.01 151.28 156.974Z" fill="#FED515"/>
</svg>

<svg xmlns="http://www.w3.org/2000/svg" width="330" height="330" fill="none" viewBox="0 0 330 330"><path fill="#000" d="m140.622 38.5 16.371-.053c16.669-.047 41.387-3.473 54.081 9.408 9.151 9.287 9.944 20.684 9.862 32.981l35.219-.123c6.866-.018 14.697-.708 21.429.686 4.222.875 8.522 2.685 11.646 5.729 7.172 6.99 7.671 14.491 7.716 23.946l-.021 103.653-.013 28.618c0 6.291.439 13.119-.646 19.311-.932 5.318-3.877 10.508-7.686 14.286-3.681 3.65-7.338 5.527-12.393 6.6-10.021 2.126-21.753 1.06-31.999 1.068l-53.594.005-89.605.019c-13.62 0-31.442 1.31-44.658-.739-5.768-.895-10.366-2.538-14.575-6.681-3.69-3.632-6.7-8.877-7.711-13.979-1.864-9.398-.665-33.998-.668-44.917l.018-102.7c.012-10.097-.518-20.685 7.362-28.338 3.052-2.963 7.18-4.892 11.309-5.783 9.715-2.1 45.038-.701 57.284-.65-.177-11.668-.175-22.971 8.059-32.232 6.136-6.902 14.245-9.54 23.213-10.114"/><path fill="#fefefe" d="M190.854 176.084c22.052-.503 75.252-8.552 94.318-17.681.435 23.229.088 46.526.1 69.763-.03 9.775 2.747 32.146-4.152 39.577-4.467 4.81-11.368 4.571-17.373 4.598l-137.546-.003-43.52.057c-7.913.007-16.27.53-24.129-.391-3.794-.444-7.02-1.976-9.699-4.705-2.699-2.748-3.347-6.587-3.755-10.293-1.085-9.843.043-20.496.054-30.455l-.034-68.039c22.023 9.334 69.576 15.951 94.293 17.716-.068 7.484.433 13.994 5.76 19.766 4.885 5.294 11.663 7.274 18.684 7.492 7.377.229 14.653-1.336 20.132-6.577 6.191-5.922 6.674-12.798 6.867-20.825"/><path fill="#fefefe" d="m57.468 92.863 142.351.034 45.19-.017c8.471-.04 17.141-.499 25.586-.026 3.059.171 6.191.289 8.85 1.995 2.911 1.867 4.533 4.272 5.244 7.64 1.121 5.32 1.218 31.043.61 36.538a10.6 10.6 0 0 1-1.823 4.814c-5.418 7.774-28.586 10.647-37.822 12.627-18.333 3.419-36.414 6.033-54.996 7.742.092-5.105 1.18-13.217-2.784-17.103-2.38-2.333-8.782-2.448-11.944-2.49-6.177-.082-30.505-1.387-34.268 2.903-3.324 3.788-2.261 11.938-2.19 16.658-19.645-2.08-76.598-8.694-91.632-18.409-1.426-1.995-2.057-4.566-2.448-6.96-1.062-6.504-1.17-27.267-.088-33.737.459-2.739 1.485-5.453 3.146-7.692 2.33-3.139 5.383-3.932 9.018-4.517m79.276-41.548c7-.764 14.341-.147 21.379-.038 7.813.12 15.617-.081 23.429-.09 7.626-.01 15.675.147 21.372 5.992 6.167 6.327 5.751 15.48 5.55 23.653l-14.174-.001-72.779.023c-.023-6.37-.464-13.257 2.326-19.16 2.658-5.623 7.232-8.377 12.897-10.38"/><path fill="#fed515" d="m151.28 156.974 27.825.026c-.057 8.866 2.494 23.714-3.036 30.939-3.14 2.243-5.705 2.853-9.518 2.986-4.179.146-8.825.191-12.003-3.015-5.792-5.844-3.376-22.9-3.268-30.936"/></svg>
